packages/astro-components-stencil/src/icons/flash-on.svg

<svg xmlns="http://www.w3.org/2000/svg" viewBox="0 0 24 24"><g xmlns="http://www.w3.org/2000/svg" id="flash-on" fill-rule="nonzero">
            <path d="M7 3v9c0 .55.45 1 1 1h2v7.15c0 .51.67.69.93.25l5.19-8.9a.995.995 0 00-.86-1.5H13l2.49-6.65A.994.994 0 0014.56 2H8c-.55 0-1 .45-1 1z"/>
        </g></svg>

<svg width="24" height="24" viewBox="0 0 24 24" fill="none" xmlns="http://www.w3.org/2000/svg">
<path d="M7 3V12C7 12.55 7.45 13 8 13H10V20.15C10 20.66 10.67 20.84 10.93 20.4L16.12 11.5C16.51 10.83 16.03 10 15.26 10H13L15.49 3.35C15.74 2.7 15.26 2 14.56 2H8C7.45 2 7 2.45 7 3Z" fill="black"/>
</svg>
